svg/solid/bxs-playlist.svg

<svg xmlns="http://www.w3.org/2000/svg" width="24" height="24"><path d="M13 16.493C13 18.427 14.573 20 16.507 20s3.507-1.573 3.507-3.507c0-.177-.027-.347-.053-.517H20V6h2V4h-3a1 1 0 0 0-1 1v8.333a3.465 3.465 0 0 0-1.493-.346A3.51 3.51 0 0 0 13 16.493zM2 5h14v2H2z"/><path d="M2 9h14v2H2zm0 4h9v2H2zm0 4h9v2H2z"/></svg>

<svg xmlns="http://www.w3.org/2000/svg" width="24" height="24" viewBox="0 0 24 24"><path d="M13 16.493C13 18.427 14.573 20 16.507 20s3.507-1.573 3.507-3.507c0-.177-.027-.347-.053-.517H20V6h2V4h-3c-.553 0-1 .448-1 1v8.333c-.455-.216-.957-.346-1.493-.346C14.573 12.986 13 14.56 13 16.493zM2 5H16V7H2z"/><path d="M2 9H16V11H2zM2 13H11V15H2zM2 17H11V19H2z"/></svg>
